X:170
T:Stormy Weather (r)
B:NFID.075a
170storm
S:JD
L:1/8
M:C
R:reel
Q:360
K:D
D2FD DFAF|DGBG FGAc|dcdA Bede|fdgf ecAF|
D2FE DFAF|(3GGG BG FABc|dcdA BGBd|AGFE (3DED CE|
D2FD DFAF|DGBG FGAc|dcdA Bede|fdgf ecAG|
FAEA DFAF|(3GGG BG FABc|dcdA BGBd|AFEF D2||
ag|fgab agfa|gfef fdBc|dBAF ABde|fagf e^deg|
[1 fgab agfa|(3gag (3fgf edBc|dBAF AdAF|EDEF D2:|
[2 fgab agfa|g2ba gfec|dcBA BcdB|AGFE DA,B,C||

%%%

